X: 2166
T: Şemsiyemin Ucu Kare
C: (Anonim)
O: Turkey
F: http://compmusic.upf.edu/node/140
N: huseyni--turku--devrihindi--semsiyemin_ucu--trakya
N: makam= huseyni
N: form= turku
N: usul= devrihindi = 7/4
M: 7/4
L: 1/16
K: C _2/4B ^3/4f  
Q: 1/4=72
%%MIDI tuningsystem comma53
g2=fe d2ef efd2 c2de cdB2 A4 e4  | \
w:  ARANAĞME  | 
g2=fe d2ef efd2 c2de cdB2 A4 A4  | 
w:   | 
g2=fe d2ef efd2 c2de cdB2 A4 e4  | \
w:  ARANAĞME  | 
g2=fe d2ef efd2 c2de cdB2 A4 A4  | 
w:   | 
d2e2 d2e6 f2g2 =f2e2 fefg e2d2  | \
w:  Şem si ye min  u cu  *  *  ka *  *  *  re    | 
d2e2 d2e6 f2g2 =f2e2 fefg e2{f}d2  | 
w:  Şem si ye min  u cu  *  *  ka *  *  *  re    | 
g2=fe d2ef efd2 c2de cdB2 A4 e4  | \
w:  Yok  mu  *  şu  der *  *  *  *  di me  *  *  *  *  ça re    | 
g2=fe d2ef efd2 c2de cdB2 A4 A4  | 
w:  Yok  mu  *  şu  der *  *  *  *  di me  *  *  *  *  ça re    | 
d2e2 d2e6 f2g2 =f2e2 fefg e2d2  | \
w:  O  yâr  gü zel  ben  bî *  *  ça *  *  *  re    | 
d2e2 d2e6 f2g2 =f2e2 fefg e2{f}d2  | 
w:  O  yâr  gü zel  ben  bî *  *  ça *  *  *  re    | 
g2=fe d2ef efd2 c2de cdB2 A4 e4  | \
w:  Ça re *  siz  dert *  *  *  *  le re  *  *  *  *  düş tüm    | 
g2=fe d2ef efd2 c2de cdB2 A4 A4  | 
w:  Bir  ve *  fâ sız  *  *  *  *  e le  *  *  *  *  düş tüm    | 
g2=fe d2ef efd2 c2de cdB2 A4 e4  | \
w:  Ça re *  siz  dert *  *  *  *  le re  *  *  *  *  düş tüm    | 
g2=fe d2ef efd2 c2de cdB2 A4 A4  | 
w:  Bir  ve *  fâ sız  *  *  *  *  e le  *  *  *  *  düş tüm    | 
g2=fe d2ef efd2 c2de cdB2 A4 e4  | \
w:  ARANAĞME  | 
g2=fe d2ef efd2 c2de cdB2 A4 A4  | 
w:   | 
g2=fe d2ef efd2 c2de cdB2 A4 e4  | \
w:  ARANAĞME  | 
g2=fe d2ef efd2 c2de cdB2 A4 A4  | 
w:   | 
d2e2 d2e6 f2g2 =f2e2 fefg e2d2  | \
w:  Şem si ye min  u cu  *  *  ka *  *  *  re    | 
d2e2 d2e6 f2g2 =f2e2 fefg e2{f}d2  | 
w:  Şem si ye min  u cu  *  *  ka *  *  *  re    | 
g2=fe d2ef efd2 c2de cdB2 A4 e4  | \
w:  Yok  mu  *  şu  der *  *  *  *  di me  *  *  *  *  ça re    | 
g2=fe d2ef efd2 c2de cdB2 A4 A4  | 
w:  Yok  mu  *  şu  der *  *  *  *  di me  *  *  *  *  ça re    | 
d2e2 d2e6 f2g2 =f2e2 fefg e2d2  | \
w:  O  yâr  gü zel  ben  bî *  *  ça *  *  *  re    | 
d2e2 d2e6 f2g2 =f2e2 fefg e2{f}d2  | 
w:  O  yâr  gü zel  ben  bî *  *  ça *  *  *  re    | 
g2=fe d2ef efd2 c2de cdB2 A4 e4  | \
w:  Ça re *  siz  dert *  *  *  *  le re  *  *  *  *  düş tüm    | 
g2=fe d2ef efd2 c2de cdB2 A4 A4  | 
w:  Bir  ve *  fâ sız  *  *  *  *  e le  *  *  *  *  düş tüm    | 
g2=fe d2ef efd2 c2de cdB2 A4 e4  | \
w:  Ça re *  siz  dert *  *  *  *  le re  *  *  *  *  düş tüm    | 
g2=fe d2ef efd2 c2de cdB2 A4 A4  | 
w:  Bir  ve *  fâ sız  *  *  *  *  e le  *  *  *  *  düş tüm    | 
|


